web/public/assets/images/seekbar-thumb-active.svg

<svg xmlns:xlink="http://www.w3.org/1999/xlink" height="16" width="16" xmlns="http://www.w3.org/2000/svg"><g transform="translate(8)"><use height="16" transform="translate(-8)" width="16" xlink:href="#a"/><use height="12" transform="translate(-6 2)" width="12" xlink:href="#b"/><use height="7" transform="translate(-3 4.5)" width="6" xlink:href="#c"/><use height="12.05" transform="translate(-6 2)" width="12.05" xlink:href="#d"/></g><defs><path d="M14 8q0-2.5-1.75-4.25T8 2Q5.55 2 3.75 3.75 2 5.5 2 8t1.75 4.25Q5.55 14 8 14q2.5 0 4.25-1.75T14 8m-6 8q-3.35 0-5.7-2.35Q0 11.35 0 8q0-3.35 2.3-5.7Q4.65 0 8 0t5.65 2.3Q16 4.65 16 8t-2.35 5.65Q11.35 16 8 16" fill="#fff" fill-rule="evenodd" id="e"/><path d="M0 14q-2.5 0-4.3-1.8Q-6 10.5-6 8t1.7-4.3Q-2.5 2 0 2t4.2 1.7Q6 5.5 6 8t-1.8 4.2Q2.5 14 0 14" fill="url(#f)" fill-rule="evenodd" transform="translate(6 -2)" id="b"/><path d="M3.95 4.1Q2.35 2.5.05 2.5q-2.35 0-3.95 1.6t-1.6 3.95q0 2.3 1.6 3.9t3.95 1.6q2.3 0 3.9-1.6t1.6-3.9q0-2.35-1.6-3.95M.05 2q2.5 0 4.25 1.75t1.75 4.3q0 2.5-1.75 4.25T.05 14.05q-2.55 0-4.3-1.75T-6 8.05q0-2.55 1.75-4.3T.05 2" fill="url(#g)" fill-rule="evenodd" transform="translate(6 -2)" id="d"/><linearGradient gradientTransform="rotate(-90 4 4.05) scale(.0073)" gradientUnits="userSpaceOnUse" id="f" spreadMethod="pad" x1="-819.2" x2="819.2"><stop offset="0" stop-color="#fff"/><stop offset="1" stop-color="#737373"/></linearGradient><linearGradient gradientTransform="matrix(0 -.0073 .0073 0 .1 8)" gradientUnits="userSpaceOnUse" id="g" spreadMethod="pad" x1="-819.2" x2="819.2"><stop offset=".365" stop-color="#555"/><stop offset=".482" stop-color="#aeaeae"/></linearGradient><use height="16" width="16" xlink:href="#e" id="a"/><g id="c" fill-rule="evenodd"><path d="m-3 5 .15-.35.35-.15.35.15L-2 5v6l-.15.35-.35.15-.35-.15L-3 11V5M-.15 4.65 0 5v6l-.15.35-.35.15-.35-.15L-1 11V5l.15-.35q.15-.15.35-.15.2 0 .35.15" fill="#fff" transform="translate(3 -4.5)"/><path d="m-2 5 .15-.35.35-.15q.2 0 .35.15Q-1 4.8-1 5v6l-.15.35-.35.15-.35-.15L-2 11V5M0 5l.15-.35Q.3 4.5.5 4.5q.2 0 .35.15L1 5v6l-.15.35-.35.15-.35-.15L0 11V5" fill="#bfbfbf" transform="translate(3 -4.5)"/><path d="M1 5q0-.2.15-.35.15-.15.35-.15l.35.15L2 5v6l-.15.35-.35.15-.35-.15L1 11V5" fill="#fff" transform="translate(3 -4.5)"/><path d="m2 5 .15-.35.35-.15.35.15L3 5v6l-.15.35-.35.15-.35-.15L2 11V5" fill="#bfbfbf" transform="translate(3 -4.5)"/></g></defs></svg>

<?xml version="1.0" encoding="UTF-8" standalone="no"?>
<svg xmlns:xlink="http://www.w3.org/1999/xlink" height="16.0px" width="16.0px" xmlns="http://www.w3.org/2000/svg">
  <g transform="matrix(1.0, 0.0, 0.0, 1.0, 8.0, 0.0)">
    <use height="16.0" transform="matrix(1.0, 0.0, 0.0, 1.0, -8.0, 0.0)" width="16.0" xlink:href="#sprite0"/>
    <use height="12.0" transform="matrix(1.0, 0.0, 0.0, 1.0, -6.0, 2.0)" width="12.0" xlink:href="#shape1"/>
    <use height="7.0" transform="matrix(1.0, 0.0, 0.0, 1.0, -3.0, 4.5)" width="6.0" xlink:href="#shape2"/>
    <use height="12.05" transform="matrix(1.0, 0.0, 0.0, 1.0, -6.0, 2.0)" width="12.05" xlink:href="#shape3"/>
  </g>
  <defs>
    <g id="sprite0" transform="matrix(1.0, 0.0, 0.0, 1.0, 0.0, 0.0)">
      <use height="16.0" transform="matrix(1.0, 0.0, 0.0, 1.0, 0.0, 0.0)" width="16.0" xlink:href="#shape0"/>
    </g>
    <g id="shape0" transform="matrix(1.0, 0.0, 0.0, 1.0, 0.0, 0.0)">
      <path d="M14.0 8.0 Q14.0 5.5 12.25 3.75 10.5 2.0 8.0 2.0 5.55 2.0 3.75 3.75 2.0 5.5 2.0 8.0 2.0 10.5 3.75 12.25 5.55 14.0 8.0 14.0 10.5 14.0 12.25 12.25 14.0 10.5 14.0 8.0 M8.0 16.0 Q4.65 16.0 2.3 13.65 0.0 11.35 0.0 8.0 0.0 4.65 2.3 2.3 4.65 0.0 8.0 0.0 11.35 0.0 13.65 2.3 16.0 4.65 16.0 8.0 16.0 11.35 13.65 13.65 11.35 16.0 8.0 16.0" fill="#ffffff" fill-rule="evenodd" stroke="none"/>
    </g>
    <g id="shape1" transform="matrix(1.0, 0.0, 0.0, 1.0, 6.0, -2.0)">
      <path d="M0.0 14.0 Q-2.5 14.0 -4.3 12.2 -6.0 10.5 -6.0 8.0 -6.0 5.5 -4.3 3.7 -2.5 2.0 0.0 2.0 2.5 2.0 4.2 3.7 6.0 5.5 6.0 8.0 6.0 10.5 4.2 12.2 2.5 14.0 0.0 14.0" fill="url(#gradient0)" fill-rule="evenodd" stroke="none"/>
    </g>
    <linearGradient gradientTransform="matrix(0.0, -0.0073, 0.0073, 0.0, -0.05, 8.05)" gradientUnits="userSpaceOnUse" id="gradient0" spreadMethod="pad" x1="-819.2" x2="819.2">
      <stop offset="0.0" stop-color="#ffffff"/>
      <stop offset="1.0" stop-color="#737373"/>
    </linearGradient>
    <g id="shape2" transform="matrix(1.0, 0.0, 0.0, 1.0, 3.0, -4.5)">
      <path d="M-3.0 5.0 L-2.85 4.65 -2.5 4.5 -2.15 4.65 -2.0 5.0 -2.0 11.0 -2.15 11.35 -2.5 11.5 -2.85 11.35 -3.0 11.0 -3.0 5.0" fill="#ffffff" fill-rule="evenodd" stroke="none"/>
      <path d="M-0.15 4.65 L0.0 5.0 0.0 11.0 -0.15 11.35 -0.5 11.5 -0.85 11.35 -1.0 11.0 -1.0 5.0 -0.85 4.65 Q-0.7 4.5 -0.5 4.5 -0.3 4.5 -0.15 4.65" fill="#ffffff" fill-rule="evenodd" stroke="none"/>
      <path d="M-2.0 5.0 L-1.85 4.65 -1.5 4.5 Q-1.3 4.5 -1.15 4.65 -1.0 4.8 -1.0 5.0 L-1.0 11.0 -1.15 11.35 -1.5 11.5 -1.85 11.35 -2.0 11.0 -2.0 5.0" fill="#bfbfbf" fill-rule="evenodd" stroke="none"/>
      <path d="M0.0 5.0 L0.15 4.65 Q0.3 4.5 0.5 4.5 0.7 4.5 0.85 4.65 L1.0 5.0 1.0 11.0 0.85 11.35 0.5 11.5 0.15 11.35 0.0 11.0 0.0 5.0" fill="#bfbfbf" fill-rule="evenodd" stroke="none"/>
      <path d="M1.0 5.0 Q1.0 4.8 1.15 4.65 1.3 4.5 1.5 4.5 L1.85 4.65 2.0 5.0 2.0 11.0 1.85 11.35 1.5 11.5 1.15 11.35 1.0 11.0 1.0 5.0" fill="#ffffff" fill-rule="evenodd" stroke="none"/>
      <path d="M2.0 5.0 L2.15 4.65 2.5 4.5 2.85 4.65 3.0 5.0 3.0 11.0 2.85 11.35 2.5 11.5 2.15 11.35 2.0 11.0 2.0 5.0" fill="#bfbfbf" fill-rule="evenodd" stroke="none"/>
    </g>
    <g id="shape3" transform="matrix(1.0, 0.0, 0.0, 1.0, 6.0, -2.0)">
      <path d="M3.95 4.1 Q2.35 2.5 0.05 2.5 -2.3 2.5 -3.9 4.1 -5.5 5.7 -5.5 8.05 -5.5 10.35 -3.9 11.95 -2.3 13.55 0.05 13.55 2.35 13.55 3.95 11.95 5.55 10.35 5.55 8.05 5.55 5.7 3.95 4.1 M0.05 2.0 Q2.55 2.0 4.3 3.75 6.05 5.5 6.05 8.05 6.05 10.55 4.3 12.3 2.55 14.05 0.05 14.05 -2.5 14.05 -4.25 12.3 -6.0 10.55 -6.0 8.05 -6.0 5.5 -4.25 3.75 -2.5 2.0 0.05 2.0" fill="url(#gradient1)" fill-rule="evenodd" stroke="none"/>
    </g>
    <linearGradient gradientTransform="matrix(0.0, -0.0073, 0.0073, 0.0, 0.1, 8.0)" gradientUnits="userSpaceOnUse" id="gradient1" spreadMethod="pad" x1="-819.2" x2="819.2">
      <stop offset="0.36470588235294116" stop-color="#555555"/>
      <stop offset="0.4823529411764706" stop-color="#aeaeae"/>
    </linearGradient>
  </defs>
</svg>
